X: 128
T: Ka' Agadat Rivka
C: Emanuel Zamir 1954
O: Israel
M: 2/4
L: 1/8
Q: 1/4=110
K: Am
|:dGAd |B/B/BAG |AA2A     |AGAA    |cBcd    |cBAc/B/
| AGAA | zAzA   ::dcde    |d f/e/d2|dcdd    |d2 d2|
  d2 d2|dd/d/c_B|A/_B/A A2| dcd2-  |d2c_B/A/|_BA3 :|



